X:42
M:6/8
L:1/8
K:D
|: a | aAa agf | g2g g2g | gGg gfe | f2f f2e | dAd eAe | fAf gab | agf edc | d3 D2 :|

